X: 022105
T: Big House (The)
C: Joe Liddy
Z: BB
S: "The Leitrim Fiddler" (Dublin 1981)
L: 1/8
M: 4/4
R: reel
Q: 1/4 = 180
K: G
A |: B2 db GBdB | cBAG FDEF | GBdB cdeg | fgaf gedB |
GBdB GBdB | cBAG FGAB | defg afge | dBcA BG G2 :|
Bdgf gdBd | cBAG FGAB | cdef gefg | abag fdBc |
[1 dggf gdBd | cBAG FGAB | defg afge | dBcA BG G2 :|
[2 dgfg bgdB | cBAG FGAB | defg afeg | d2 cA BG G2 ||
